findly-builder/apps/searchassist/src/assets/icons/actions/bottom-up-top-actions.svg

<svg width="327" height="326" viewBox="0 0 327 326" fill="none" xmlns="http://www.w3.org/2000/svg">
<path d="M0.375 3.99999C0.375 1.99796 1.99797 0.375 4 0.375H230C232.002 0.375 233.625 1.99797 233.625 4V322C233.625 324.002 232.002 325.625 230 325.625H4C1.99797 325.625 0.375 324.002 0.375 322V3.99999Z" fill="white" stroke="#E4E5E7" stroke-width="0.75"/>
<rect x="3.375" y="304.375" width="227.25" height="18.25" rx="3.625" fill="white"/>
<path fill-rule="evenodd" clip-rule="evenodd" d="M18.4732 309.35C16.196 309.35 14.35 311.201 14.35 313.484C14.35 315.768 16.196 317.619 18.4732 317.619C19.469 317.619 20.3824 317.265 21.095 316.675L23.0066 318.568L23.0351 318.594C23.1921 318.722 23.4235 318.712 23.5687 318.565C23.7229 318.408 23.7213 318.156 23.5652 318.001L21.6569 316.112C22.2439 315.397 22.5964 314.482 22.5964 313.484C22.5964 311.201 20.7504 309.35 18.4732 309.35ZM18.4732 310.147C20.3114 310.147 21.8016 311.641 21.8016 313.484C21.8016 315.327 20.3114 316.822 18.4732 316.822C16.635 316.822 15.1448 315.327 15.1448 313.484C15.1448 311.641 16.635 310.147 18.4732 310.147Z" fill="#BDC1C6"/>
<path d="M34.858 311.545H35.7102C35.6712 310.448 34.6591 309.628 33.2528 309.628C31.8608 309.628 30.767 310.438 30.767 311.659C30.767 312.639 31.4773 313.222 32.6136 313.548L33.5085 313.804C34.2756 314.017 34.9574 314.287 34.9574 315.011C34.9574 315.807 34.1903 316.332 33.1818 316.332C32.3153 316.332 31.5483 315.949 31.4773 315.125H30.5682C30.6534 316.318 31.6193 317.128 33.1818 317.128C34.858 317.128 35.8097 316.205 35.8097 315.026C35.8097 313.662 34.517 313.222 33.7642 313.023L33.0256 312.824C32.4858 312.682 31.6193 312.398 31.6193 311.616C31.6193 310.92 32.2585 310.409 33.2244 310.409C34.1051 310.409 34.7727 310.828 34.858 311.545ZM39.4309 317.114C40.5389 317.114 41.3485 316.56 41.6042 315.736L40.7946 315.509C40.5815 316.077 40.0879 316.361 39.4309 316.361C38.4473 316.361 37.769 315.725 37.7299 314.557H41.6895V314.202C41.6895 312.17 40.4821 311.474 39.3457 311.474C37.8684 311.474 36.8883 312.639 36.8883 314.315C36.8883 315.991 37.8542 317.114 39.4309 317.114ZM37.7299 313.832C37.7868 312.984 38.3869 312.227 39.3457 312.227C40.2548 312.227 40.8372 312.909 40.8372 313.832H37.7299ZM44.5694 317.128C45.5211 317.128 46.0183 316.616 46.1887 316.261H46.2314V317H47.0694V313.406C47.0694 311.673 45.7484 311.474 45.0524 311.474C44.2285 311.474 43.291 311.759 42.8649 312.753L43.6603 313.037C43.845 312.639 44.2818 312.213 45.0808 312.213C45.8514 312.213 46.2314 312.621 46.2314 313.321V313.349C46.2314 313.754 45.8194 313.719 44.8251 313.847C43.813 313.978 42.7086 314.202 42.7086 315.452C42.7086 316.517 43.5325 317.128 44.5694 317.128ZM44.6973 316.375C44.0297 316.375 43.5467 316.077 43.5467 315.494C43.5467 314.855 44.1291 314.656 44.7825 314.571C45.1376 314.528 46.0893 314.429 46.2314 314.259V315.026C46.2314 315.707 45.6916 316.375 44.6973 316.375ZM48.5991 317H49.4371V313.548C49.4371 312.81 50.0195 312.27 50.815 312.27C51.0387 312.27 51.2695 312.312 51.3263 312.327V311.474C51.2305 311.467 51.0103 311.46 50.886 311.46C50.2326 311.46 49.6644 311.83 49.4656 312.369H49.4087V311.545H48.5991V317ZM54.3697 317.114C55.5771 317.114 56.3725 316.375 56.5146 315.409H55.6765C55.5202 316.006 55.0231 316.361 54.3697 316.361C53.3754 316.361 52.7362 315.537 52.7362 314.273C52.7362 313.037 53.3896 312.227 54.3697 312.227C55.1083 312.227 55.5487 312.682 55.6765 313.179H56.5146C56.3725 312.156 55.506 311.474 54.3555 311.474C52.8782 311.474 51.8981 312.639 51.8981 314.301C51.8981 315.935 52.8356 317.114 54.3697 317.114ZM58.5778 313.719C58.5778 312.767 59.185 312.227 60.0124 312.227C60.8008 312.227 61.2766 312.724 61.2766 313.591V317H62.1147V313.534C62.1147 312.131 61.369 311.474 60.2539 311.474C59.3945 311.474 58.9045 311.833 58.6488 312.398H58.5778V309.727H57.7397V317H58.5778V313.719Z" fill="#BDC1C6"/>
<rect x="3.375" y="304.375" width="227.25" height="18.25" rx="3.625" stroke="#E4E5E7" stroke-width="0.75"/>
<rect opacity="0.6" x="89" y="34" width="137" height="27" rx="1" fill="#EFF0F1"/>
<rect opacity="0.6" x="8" y="72" width="95" height="27" rx="1" fill="#EFF0F1"/>
<rect opacity="0.6" x="8" y="174" width="218" height="21" rx="1" fill="#EFF0F1"/>
<rect opacity="0.6" x="8" y="198" width="218" height="21" rx="1" fill="#EFF0F1"/>
<rect opacity="0.6" x="8" y="222" width="218" height="21" rx="1" fill="#EFF0F1"/>
<path d="M8.6392 165H9.51705V162.955H10.7102C12.0597 162.955 12.7273 162.139 12.7273 161.065C12.7273 159.994 12.0653 159.182 10.7131 159.182H8.6392V165ZM9.51705 162.21V159.935H10.6193C11.4886 159.935 11.8438 160.406 11.8438 161.065C11.8438 161.724 11.4886 162.21 10.6307 162.21H9.51705ZM13.6307 165L14.1648 163.46H16.4375L16.9688 165H17.9006L15.8068 159.182H14.7926L12.6989 165H13.6307ZM14.4205 162.722L15.2784 160.239H15.3239L16.1818 162.722H14.4205ZM22.4048 161.02H23.3054C23.1094 159.886 22.1406 159.102 20.8849 159.102C19.3793 159.102 18.2798 160.236 18.2798 162.094C18.2798 163.935 19.348 165.08 20.9247 165.08C22.3366 165.08 23.3452 164.153 23.3452 162.685V162.023H21.0582V162.747H22.4957C22.4759 163.685 21.8565 164.278 20.9247 164.278C19.8991 164.278 19.152 163.503 19.152 162.088C19.152 160.679 19.9048 159.903 20.8906 159.903C21.6634 159.903 22.1861 160.33 22.4048 161.02ZM24.4595 165H28.1413V164.244H25.3374V162.463H27.9169V161.71H25.3374V159.938H28.1072V159.182H24.4595V165ZM32.4531 160.71H33.2997C33.2741 159.778 32.4503 159.102 31.2685 159.102C30.1009 159.102 29.206 159.77 29.206 160.773C29.206 161.582 29.7855 162.057 30.7202 162.31L31.4077 162.497C32.0298 162.662 32.5099 162.866 32.5099 163.384C32.5099 163.952 31.9673 164.327 31.2202 164.327C30.544 164.327 29.9815 164.026 29.9304 163.392H29.0497C29.1065 164.446 29.9219 165.097 31.2259 165.097C32.5923 165.097 33.3793 164.378 33.3793 163.392C33.3793 162.344 32.4446 161.938 31.706 161.756L31.1378 161.608C30.6832 161.491 30.0781 161.278 30.081 160.722C30.081 160.227 30.5327 159.861 31.2486 159.861C31.9162 159.861 32.3906 160.173 32.4531 160.71Z" fill="#5F6368"/>
<path d="M0 27H234" stroke="#EFF0F1"/>
<rect opacity="0.6" x="8" y="126" width="90" height="21" rx="1" fill="#EFF0F1"/>
<rect opacity="0.6" x="103" y="126" width="90" height="21" rx="1" fill="#EFF0F1"/>
<path d="M9.13068 117L9.66477 115.46H11.9375L12.4688 117H13.4006L11.3068 111.182H10.2926L8.19886 117H9.13068ZM9.92045 114.722L10.7784 112.239H10.8239L11.6818 114.722H9.92045ZM18.7997 113.074C18.6009 111.83 17.6264 111.102 16.3963 111.102C14.8906 111.102 13.7798 112.23 13.7798 114.091C13.7798 115.952 14.8849 117.08 16.3963 117.08C17.6747 117.08 18.6094 116.278 18.7997 115.128L17.9134 115.125C17.7628 115.869 17.1378 116.278 16.402 116.278C15.4048 116.278 14.652 115.514 14.652 114.091C14.652 112.679 15.402 111.903 16.4048 111.903C17.1463 111.903 17.7685 112.321 17.9134 113.074H18.7997ZM19.5632 111.938H21.3757V117H22.2507V111.938H24.0661V111.182H19.5632V111.938ZM25.9389 111.182H25.0611V117H25.9389V111.182ZM32.2713 114.091C32.2713 112.23 31.1577 111.102 29.652 111.102C28.1406 111.102 27.0298 112.23 27.0298 114.091C27.0298 115.949 28.1406 117.08 29.652 117.08C31.1577 117.08 32.2713 115.952 32.2713 114.091ZM31.402 114.091C31.402 115.509 30.652 116.278 29.652 116.278C28.6491 116.278 27.902 115.509 27.902 114.091C27.902 112.673 28.6491 111.903 29.652 111.903C30.652 111.903 31.402 112.673 31.402 114.091ZM38.0618 111.182H37.1925V115.455H37.1385L34.1783 111.182H33.3658V117H34.2436V112.733H34.2976L37.255 117H38.0618V111.182ZM42.5156 112.71H43.3622C43.3366 111.778 42.5128 111.102 41.331 111.102C40.1634 111.102 39.2685 111.77 39.2685 112.773C39.2685 113.582 39.848 114.057 40.7827 114.31L41.4702 114.497C42.0923 114.662 42.5724 114.866 42.5724 115.384C42.5724 115.952 42.0298 116.327 41.2827 116.327C40.6065 116.327 40.044 116.026 39.9929 115.392H39.1122C39.169 116.446 39.9844 117.097 41.2884 117.097C42.6548 117.097 43.4418 116.378 43.4418 115.392C43.4418 114.344 42.5071 113.938 41.7685 113.756L41.2003 113.608C40.7457 113.491 40.1406 113.278 40.1435 112.722C40.1435 112.227 40.5952 111.861 41.3111 111.861C41.9787 111.861 42.4531 112.173 42.5156 112.71Z" fill="#5F6368"/>
<g filter="url(#filter0_d)">
<rect x="207" y="119" width="116" height="34" rx="4" fill="#202124"/>
<path d="M223.651 140L224.251 138.207H226.986L227.589 140H228.996L226.432 132.727H224.805L222.245 140H223.651ZM224.607 137.148L225.59 134.219H225.647L226.631 137.148H224.607ZM232.11 140.107C233.481 140.107 234.354 139.293 234.447 138.136H233.218C233.108 138.722 232.685 139.059 232.121 139.059C231.318 139.059 230.8 138.388 230.8 137.273C230.8 136.172 231.329 135.511 232.121 135.511C232.739 135.511 233.119 135.909 233.218 136.435H234.447C234.358 135.252 233.435 134.474 232.103 134.474C230.505 134.474 229.496 135.629 229.496 137.294C229.496 138.945 230.48 140.107 232.11 140.107ZM238.226 134.545H237.15V133.239H235.865V134.545H235.09V135.54H235.865V138.572C235.857 139.599 236.603 140.103 237.569 140.075C237.935 140.064 238.187 139.993 238.325 139.947L238.109 138.942C238.038 138.96 237.892 138.991 237.732 138.991C237.409 138.991 237.15 138.878 237.15 138.359V135.54H238.226V134.545ZM239.301 140H240.587V134.545H239.301V140ZM239.947 133.771C240.356 133.771 240.69 133.459 240.69 133.075C240.69 132.688 240.356 132.376 239.947 132.376C239.536 132.376 239.202 132.688 239.202 133.075C239.202 133.459 239.536 133.771 239.947 133.771ZM244.288 140.107C245.886 140.107 246.901 138.981 246.901 137.294C246.901 135.604 245.886 134.474 244.288 134.474C242.69 134.474 241.674 135.604 241.674 137.294C241.674 138.981 242.69 140.107 244.288 140.107ZM244.295 139.077C243.411 139.077 242.977 138.288 242.977 137.29C242.977 136.293 243.411 135.494 244.295 135.494C245.165 135.494 245.598 136.293 245.598 137.29C245.598 138.288 245.165 139.077 244.295 139.077ZM249.278 136.804C249.278 136.016 249.754 135.561 250.432 135.561C251.096 135.561 251.494 135.998 251.494 136.726V140H252.779V136.527C252.783 135.22 252.037 134.474 250.912 134.474C250.095 134.474 249.534 134.865 249.285 135.472H249.221V134.545H247.993V140H249.278V136.804ZM258.397 135.987C258.22 135.064 257.481 134.474 256.203 134.474C254.889 134.474 253.994 135.121 253.998 136.129C253.994 136.925 254.484 137.45 255.532 137.667L256.462 137.862C256.963 137.972 257.197 138.175 257.197 138.484C257.197 138.857 256.792 139.137 256.181 139.137C255.592 139.137 255.208 138.881 255.098 138.391L253.845 138.512C254.005 139.513 254.846 140.107 256.185 140.107C257.549 140.107 258.511 139.4 258.515 138.366C258.511 137.589 258.01 137.113 256.98 136.889L256.05 136.69C255.496 136.566 255.276 136.374 255.279 136.058C255.276 135.689 255.684 135.433 256.221 135.433C256.814 135.433 257.126 135.756 257.225 136.115L258.397 135.987ZM263.625 140.11C264.48 140.11 264.992 139.709 265.226 139.251H265.269V140H266.505V136.349C266.505 134.908 265.329 134.474 264.289 134.474C263.142 134.474 262.261 134.986 261.977 135.98L263.177 136.151C263.305 135.778 263.667 135.458 264.296 135.458C264.892 135.458 265.219 135.763 265.219 136.3V136.321C265.219 136.69 264.832 136.708 263.87 136.811C262.811 136.925 261.799 137.241 261.799 138.469C261.799 139.542 262.584 140.11 263.625 140.11ZM263.958 139.165C263.422 139.165 263.039 138.92 263.039 138.448C263.039 137.955 263.468 137.749 264.044 137.667C264.381 137.621 265.056 137.536 265.223 137.401V138.043C265.223 138.651 264.733 139.165 263.958 139.165ZM270.521 134.545H269.445V133.239H268.159V134.545H267.385V135.54H268.159V138.572C268.152 139.599 268.898 140.103 269.864 140.075C270.23 140.064 270.482 139.993 270.62 139.947L270.404 138.942C270.333 138.96 270.187 138.991 270.027 138.991C269.704 138.991 269.445 138.878 269.445 138.359V135.54H270.521V134.545ZM276.8 134.545H275.724V133.239H274.439V134.545H273.665V135.54H274.439V138.572C274.432 139.599 275.177 140.103 276.143 140.075C276.509 140.064 276.761 139.993 276.9 139.947L276.683 138.942C276.612 138.96 276.466 138.991 276.307 138.991C275.983 138.991 275.724 138.878 275.724 138.359V135.54H276.8V134.545ZM279.278 136.804C279.278 136.016 279.768 135.561 280.457 135.561C281.132 135.561 281.529 135.991 281.529 136.726V140H282.815V136.527C282.815 135.21 282.069 134.474 280.936 134.474C280.098 134.474 279.566 134.854 279.314 135.472H279.25V132.727H277.993V140H279.278V136.804ZM286.54 140.107C287.811 140.107 288.685 139.485 288.912 138.537L287.712 138.402C287.538 138.864 287.112 139.105 286.558 139.105C285.727 139.105 285.176 138.558 285.166 137.624H288.966V137.23C288.966 135.316 287.815 134.474 286.473 134.474C284.91 134.474 283.891 135.621 283.891 137.305C283.891 139.016 284.896 140.107 286.54 140.107ZM285.169 136.758C285.208 136.062 285.723 135.476 286.49 135.476C287.229 135.476 287.726 136.016 287.733 136.758H285.169ZM295.257 134.545H294.181V133.239H292.896V134.545H292.122V135.54H292.896V138.572C292.889 139.599 293.634 140.103 294.6 140.075C294.966 140.064 295.218 139.993 295.357 139.947L295.14 138.942C295.069 138.96 294.923 138.991 294.764 138.991C294.441 138.991 294.181 138.878 294.181 138.359V135.54H295.257V134.545ZM298.653 140.107C300.251 140.107 301.267 138.981 301.267 137.294C301.267 135.604 300.251 134.474 298.653 134.474C297.055 134.474 296.039 135.604 296.039 137.294C296.039 138.981 297.055 140.107 298.653 140.107ZM298.66 139.077C297.776 139.077 297.343 138.288 297.343 137.29C297.343 136.293 297.776 135.494 298.66 135.494C299.53 135.494 299.963 136.293 299.963 137.29C299.963 138.288 299.53 139.077 298.66 139.077ZM302.358 142.045H303.643V139.141H303.697C303.899 139.538 304.322 140.096 305.259 140.096C306.545 140.096 307.507 139.077 307.507 137.28C307.507 135.462 306.516 134.474 305.256 134.474C304.293 134.474 303.892 135.053 303.697 135.447H303.622V134.545H302.358V142.045ZM303.618 137.273C303.618 136.214 304.073 135.529 304.9 135.529C305.756 135.529 306.197 136.257 306.197 137.273C306.197 138.295 305.749 139.041 304.9 139.041C304.08 139.041 303.618 138.331 303.618 137.273Z" fill="white"/>
</g>
<rect x="207" y="129" width="9.89949" height="9.8995" transform="rotate(45 207 129)" fill="#202124"/>
<defs>
<filter id="filter0_d" x="203" y="119" width="124" height="42" filterUnits="userSpaceOnUse" color-interpolation-filters="sRGB">
<feFlood flood-opacity="0" result="BackgroundImageFix"/>
<feColorMatrix in="SourceAlpha" type="matrix" values="0 0 0 0 0 0 0 0 0 0 0 0 0 0 0 0 0 0 127 0"/>
<feOffset dy="4"/>
<feGaussianBlur stdDeviation="2"/>
<feColorMatrix type="matrix" values="0 0 0 0 0.12549 0 0 0 0 0.129412 0 0 0 0 0.141176 0 0 0 0.2 0"/>
<feBlend mode="normal" in2="BackgroundImageFix" result="effect1_dropShadow"/>
<feBlend mode="normal" in="SourceGraphic" in2="effect1_dropShadow" result="shape"/>
</filter>
</defs>
</svg>

<svg width="327" height="326" fill="none" xmlns="http://www.w3.org/2000/svg"><path d="M.375 4A3.625 3.625 0 0 1 4 .375h226A3.625 3.625 0 0 1 233.625 4v318a3.625 3.625 0 0 1-3.625 3.625H4A3.625 3.625 0 0 1 .375 322V4Z" fill="#fff" stroke="#E4E5E7" stroke-width=".75"/><rect x="3.375" y="304.375" width="227.25" height="18.25" rx="3.625" fill="#fff"/><path fill-rule="evenodd" clip-rule="evenodd" d="M18.473 309.35a4.129 4.129 0 0 0-4.123 4.134 4.129 4.129 0 0 0 4.123 4.135c.996 0 1.91-.354 2.622-.944l1.912 1.893.028.026a.397.397 0 0 0 .53-.593l-1.908-1.889c.587-.715.94-1.63.94-2.628a4.129 4.129 0 0 0-4.124-4.134Zm0 .797a3.333 3.333 0 0 1 3.329 3.337 3.334 3.334 0 0 1-3.329 3.338 3.334 3.334 0 0 1-3.328-3.338 3.333 3.333 0 0 1 3.328-3.337Z" fill="#BDC1C6"/><path d="M34.858 311.545h.852c-.039-1.097-1.05-1.917-2.457-1.917-1.392 0-2.486.81-2.486 2.031 0 .98.71 1.563 1.847 1.889l.895.256c.767.213 1.448.483 1.448 1.207 0 .796-.767 1.321-1.775 1.321-.867 0-1.634-.383-1.705-1.207h-.909c.085 1.193 1.051 2.003 2.614 2.003 1.676 0 2.628-.923 2.628-2.102 0-1.364-1.293-1.804-2.046-2.003l-.738-.199c-.54-.142-1.407-.426-1.407-1.208 0-.696.64-1.207 1.605-1.207.881 0 1.549.419 1.634 1.136Zm4.573 5.569c1.108 0 1.918-.554 2.173-1.378l-.81-.227c-.212.568-.706.852-1.363.852-.984 0-1.662-.636-1.701-1.804h3.96v-.355c0-2.032-1.208-2.728-2.344-2.728-1.478 0-2.458 1.165-2.458 2.841 0 1.676.966 2.799 2.543 2.799Zm-1.701-3.282c.057-.848.657-1.605 1.616-1.605.909 0 1.491.682 1.491 1.605H37.73Zm6.84 3.296c.951 0 1.448-.512 1.619-.867h.042V317h.838v-3.594c0-1.733-1.32-1.932-2.017-1.932-.824 0-1.761.285-2.187 1.279l.795.284c.185-.398.622-.824 1.42-.824.771 0 1.151.408 1.151 1.108v.028c0 .405-.412.37-1.406.498-1.012.131-2.116.355-2.116 1.605 0 1.065.823 1.676 1.86 1.676Zm.127-.753c-.667 0-1.15-.298-1.15-.881 0-.639.582-.838 1.236-.923.355-.043 1.306-.142 1.448-.312v.767c0 .681-.54 1.349-1.534 1.349ZM48.6 317h.838v-3.452c0-.738.583-1.278 1.378-1.278.224 0 .455.042.511.057v-.853a8.168 8.168 0 0 0-.44-.014c-.653 0-1.222.37-1.42.909h-.057v-.824h-.81V317Zm5.77.114c1.208 0 2.004-.739 2.146-1.705h-.839c-.156.597-.653.952-1.306.952-.995 0-1.634-.824-1.634-2.088 0-1.236.654-2.046 1.634-2.046.738 0 1.179.455 1.306.952h.839c-.142-1.023-1.009-1.705-2.16-1.705-1.477 0-2.457 1.165-2.457 2.827 0 1.634.938 2.813 2.472 2.813Zm4.209-3.395c0-.952.607-1.492 1.434-1.492.789 0 1.265.497 1.265 1.364V317h.838v-3.466c0-1.403-.746-2.06-1.861-2.06-.86 0-1.35.359-1.605.924h-.071v-2.671h-.838V317h.838v-3.281Z" fill="#BDC1C6"/><rect x="3.375" y="304.375" width="227.25" height="18.25" rx="3.625" stroke="#E4E5E7" stroke-width=".75"/><rect opacity=".6" x="89" y="34" width="137" height="27" rx="1" fill="#EFF0F1"/><rect opacity=".6" x="8" y="72" width="95" height="27" rx="1" fill="#EFF0F1"/><rect opacity=".6" x="8" y="174" width="218" height="21" rx="1" fill="#EFF0F1"/><rect opacity=".6" x="8" y="198" width="218" height="21" rx="1" fill="#EFF0F1"/><rect opacity=".6" x="8" y="222" width="218" height="21" rx="1" fill="#EFF0F1"/><path d="M8.64 165h.877v-2.045h1.193c1.35 0 2.017-.816 2.017-1.89 0-1.071-.662-1.883-2.014-1.883H8.64V165Zm.877-2.79v-2.275h1.102c.87 0 1.225.471 1.225 1.13 0 .659-.355 1.145-1.213 1.145H9.517Zm4.114 2.79.534-1.54h2.273l.53 1.54h.933l-2.094-5.818h-1.014L12.699 165h.932Zm.79-2.278.857-2.483h.046l.858 2.483H14.42Zm7.984-1.702h.9c-.196-1.134-1.164-1.918-2.42-1.918-1.506 0-2.605 1.134-2.605 2.992 0 1.841 1.068 2.986 2.645 2.986 1.412 0 2.42-.927 2.42-2.395v-.662h-2.287v.724h1.438c-.02.938-.64 1.531-1.571 1.531-1.026 0-1.773-.775-1.773-2.19 0-1.409.753-2.185 1.739-2.185.772 0 1.295.427 1.514 1.117Zm2.054 3.98h3.682v-.756h-2.804v-1.781h2.58v-.753h-2.58v-1.772h2.77v-.756H24.46V165Zm7.994-4.29h.847c-.026-.932-.85-1.608-2.031-1.608-1.168 0-2.063.668-2.063 1.671 0 .809.58 1.284 1.514 1.537l.688.187c.622.165 1.102.369 1.102.887 0 .568-.543.943-1.29.943-.676 0-1.238-.301-1.29-.935h-.88c.056 1.054.872 1.705 2.176 1.705 1.366 0 2.153-.719 2.153-1.705 0-1.048-.934-1.454-1.673-1.636l-.568-.148c-.455-.117-1.06-.33-1.057-.886 0-.495.452-.861 1.168-.861.667 0 1.142.312 1.204.849Z" fill="#5F6368"/><path d="M0 27h234" stroke="#EFF0F1"/><rect opacity=".6" x="8" y="126" width="90" height="21" rx="1" fill="#EFF0F1"/><rect opacity=".6" x="103" y="126" width="90" height="21" rx="1" fill="#EFF0F1"/><path d="m9.13 117 .535-1.54h2.273l.53 1.54h.933l-2.094-5.818h-1.014L8.199 117h.932Zm.79-2.278.858-2.483h.046l.858 2.483H9.92Zm8.88-1.648c-.2-1.244-1.174-1.972-2.404-1.972-1.505 0-2.616 1.128-2.616 2.989s1.105 2.989 2.616 2.989c1.279 0 2.213-.802 2.404-1.952l-.887-.003c-.15.744-.775 1.153-1.511 1.153-.997 0-1.75-.764-1.75-2.187 0-1.412.75-2.188 1.753-2.188.741 0 1.363.418 1.508 1.171h.887Zm.763-1.136h1.813V117h.875v-5.062h1.815v-.756h-4.503v.756Zm6.376-.756h-.878V117h.878v-5.818Zm6.332 2.909c0-1.861-1.113-2.989-2.619-2.989-1.511 0-2.622 1.128-2.622 2.989 0 1.858 1.11 2.989 2.622 2.989 1.506 0 2.62-1.128 2.62-2.989Zm-.869 0c0 1.418-.75 2.187-1.75 2.187-1.003 0-1.75-.769-1.75-2.187 0-1.418.747-2.188 1.75-2.188 1 0 1.75.77 1.75 2.188Zm6.66-2.909h-.87v4.273h-.053l-2.96-4.273h-.813V117h.878v-4.267h.054L37.255 117h.807v-5.818Zm4.454 1.528h.846c-.025-.932-.85-1.608-2.031-1.608-1.168 0-2.063.668-2.063 1.671 0 .809.58 1.284 1.515 1.537l.687.187c.622.165 1.102.369 1.102.887 0 .568-.542.943-1.29.943-.675 0-1.238-.301-1.29-.935h-.88c.057 1.054.872 1.705 2.176 1.705 1.367 0 2.154-.719 2.154-1.705 0-1.048-.935-1.454-1.673-1.636l-.569-.148c-.454-.117-1.06-.33-1.056-.886 0-.495.451-.861 1.167-.861.668 0 1.142.312 1.205.849Z" fill="#5F6368"/><g filter="url(#a)"><rect x="207" y="119" width="116" height="34" rx="4" fill="#202124"/><path d="m223.651 140 .6-1.793h2.735l.603 1.793h1.407l-2.564-7.273h-1.627l-2.56 7.273h1.406Zm.956-2.852.983-2.929h.057l.984 2.929h-2.024Zm7.503 2.959c1.371 0 2.244-.814 2.337-1.971h-1.229c-.11.586-.533.923-1.097.923-.803 0-1.321-.671-1.321-1.786 0-1.101.529-1.762 1.321-1.762.618 0 .998.398 1.097.924h1.229c-.089-1.183-1.012-1.961-2.344-1.961-1.598 0-2.607 1.155-2.607 2.82 0 1.651.984 2.813 2.614 2.813Zm6.116-5.562h-1.076v-1.306h-1.285v1.306h-.775v.995h.775v3.032c-.008 1.027.738 1.531 1.704 1.503.366-.011.618-.082.756-.128l-.216-1.005a1.602 1.602 0 0 1-.377.049c-.323 0-.582-.113-.582-.632v-2.819h1.076v-.995Zm1.075 5.455h1.286v-5.455h-1.286V140Zm.646-6.229c.409 0 .743-.312.743-.696 0-.387-.334-.699-.743-.699-.411 0-.745.312-.745.699 0 .384.334.696.745.696Zm4.341 6.336c1.598 0 2.613-1.126 2.613-2.813 0-1.69-1.015-2.82-2.613-2.82s-2.614 1.13-2.614 2.82c0 1.687 1.016 2.813 2.614 2.813Zm.007-1.03c-.884 0-1.318-.789-1.318-1.787 0-.997.434-1.796 1.318-1.796.87 0 1.303.799 1.303 1.796 0 .998-.433 1.787-1.303 1.787Zm4.983-2.273c0-.788.476-1.243 1.154-1.243.664 0 1.062.437 1.062 1.165V140h1.285v-3.473c.004-1.307-.742-2.053-1.867-2.053-.817 0-1.378.391-1.627.998h-.064v-.927h-1.228V140h1.285v-3.196Zm9.119-.817c-.177-.923-.916-1.513-2.194-1.513-1.314 0-2.209.647-2.205 1.655-.004.796.486 1.321 1.534 1.538l.93.195c.501.11.735.313.735.622 0 .373-.405.653-1.016.653-.589 0-.973-.256-1.083-.746l-1.253.121c.16 1.001 1.001 1.595 2.34 1.595 1.364 0 2.326-.707 2.33-1.741-.004-.777-.505-1.253-1.535-1.477l-.93-.199c-.554-.124-.774-.316-.771-.632-.003-.369.405-.625.942-.625.593 0 .905.323 1.004.682l1.172-.128Zm5.228 4.123c.855 0 1.367-.401 1.601-.859h.043V140h1.236v-3.651c0-1.441-1.176-1.875-2.216-1.875-1.147 0-2.028.512-2.312 1.506l1.2.171c.128-.373.49-.693 1.119-.693.596 0 .923.305.923.842v.021c0 .369-.387.387-1.349.49-1.059.114-2.071.43-2.071 1.658 0 1.073.785 1.641 1.826 1.641Zm.333-.945c-.536 0-.919-.245-.919-.717 0-.493.429-.699 1.005-.781.337-.046 1.012-.131 1.179-.266v.642c0 .608-.49 1.122-1.265 1.122Zm6.563-4.62h-1.076v-1.306h-1.286v1.306h-.774v.995h.774v3.032c-.007 1.027.739 1.531 1.705 1.503.366-.011.618-.082.756-.128l-.216-1.005a1.602 1.602 0 0 1-.377.049c-.323 0-.582-.113-.582-.632v-2.819h1.076v-.995Zm6.279 0h-1.076v-1.306h-1.285v1.306h-.774v.995h.774v3.032c-.007 1.027.738 1.531 1.704 1.503.366-.011.618-.082.757-.128l-.217-1.005a1.6 1.6 0 0 1-.376.049c-.324 0-.583-.113-.583-.632v-2.819h1.076v-.995Zm2.478 2.259c0-.788.49-1.243 1.179-1.243.675 0 1.072.43 1.072 1.165V140h1.286v-3.473c0-1.317-.746-2.053-1.879-2.053-.838 0-1.37.38-1.622.998h-.064v-2.745h-1.257V140h1.285v-3.196Zm7.262 3.303c1.271 0 2.145-.622 2.372-1.57l-1.2-.135c-.174.462-.6.703-1.154.703-.831 0-1.382-.547-1.392-1.481h3.8v-.394c0-1.914-1.151-2.756-2.493-2.756-1.563 0-2.582 1.147-2.582 2.831 0 1.711 1.005 2.802 2.649 2.802Zm-1.371-3.349c.039-.696.554-1.282 1.321-1.282.739 0 1.236.54 1.243 1.282h-2.564Zm10.088-2.213h-1.076v-1.306h-1.285v1.306h-.774v.995h.774v3.032c-.007 1.027.738 1.531 1.704 1.503.366-.011.618-.082.757-.128l-.217-1.005a1.6 1.6 0 0 1-.376.049c-.323 0-.583-.113-.583-.632v-2.819h1.076v-.995Zm3.396 5.562c1.598 0 2.614-1.126 2.614-2.813 0-1.69-1.016-2.82-2.614-2.82-1.598 0-2.614 1.13-2.614 2.82 0 1.687 1.016 2.813 2.614 2.813Zm.007-1.03c-.884 0-1.317-.789-1.317-1.787 0-.997.433-1.796 1.317-1.796.87 0 1.303.799 1.303 1.796 0 .998-.433 1.787-1.303 1.787Zm3.698 2.968h1.285v-2.904h.054c.202.397.625.955 1.562.955 1.286 0 2.248-1.019 2.248-2.816 0-1.818-.991-2.806-2.251-2.806-.963 0-1.364.579-1.559.973h-.075v-.902h-1.264v7.5Zm1.26-4.772c0-1.059.455-1.744 1.282-1.744.856 0 1.297.728 1.297 1.744 0 1.022-.448 1.768-1.297 1.768-.82 0-1.282-.71-1.282-1.768Z" fill="#fff"/></g><path fill="#202124" d="m207 129 7 7-7 7-7-7z"/><defs><filter id="a" x="203" y="119" width="124" height="42" filterUnits="userSpaceOnUse" color-interpolation-filters="sRGB"><feFlood flood-opacity="0" result="BackgroundImageFix"/><feColorMatrix in="SourceAlpha" values="0 0 0 0 0 0 0 0 0 0 0 0 0 0 0 0 0 0 127 0"/><feOffset dy="4"/><feGaussianBlur stdDeviation="2"/><feColorMatrix values="0 0 0 0 0.12549 0 0 0 0 0.129412 0 0 0 0 0.141176 0 0 0 0.2 0"/><feBlend in2="BackgroundImageFix" result="effect1_dropShadow"/><feBlend in="SourceGraphic" in2="effect1_dropShadow" result="shape"/></filter></defs></svg>
